;FLAVOR:Marlin
;TIME:2267
;Filament used: 1.8387m
;Layer height: 0.2
;MINX:98.4
;MINY:78.4
;MINZ:0.3
;MAXX:143.6
;MAXY:123.6
;MAXZ:5.5
;TARGET_MACHINE.NAME:Anycubic Kobra Go
;Generated with Cura_SteamEngine 5.5.0
M140 S60
M105
M190 S60
M104 S190
M105
M109 S190
M82 ;absolute extrusion mode
M140 S[first_layer_bed_temperature]; Heat bed
M104 S[first_layer_temperature
            ]; Heat extruder
G21 ;metric values
G90 ;absolute positioning
M82 ;set extruder to absolute mode
G28 ; Home all axes
G92 E0 ; Reset Extruder
M420 S1 ; Enable Bed Levelling Mesh
M190 S[first_layer_bed_temperature
            ]; Wait for bed to get up to temperature
M109 S[first_layer_temperature
            ]; Wait for extruder to get up to temperature
G1 Z2.0 F3000 ; Move Z Axis up little to prevent scratching of Heat Bed
G1 X2 Y20 Z0.3 F5000.0 ; Move to start position
G1 X2 Y200.0 Z0.3 F1500.0 E15 ; Draw the first line
G1 X2.4 Y200.0 Z0.3 F5000.0 ; Move to side a little
G1 X2.4 Y20 Z0.3 F1500.0 E30 ; Draw the second line
G92 E0 ; Reset Extruder
G1 Z2.0 F3000 ; Move Z Axis up little to prevent scratching of Heat Bed
G1 F2400 E-1
G1 X5 Y20 Z0.3 F5000.0 ; Move over to prevent blob squish
G92 E0
G92 E0
G1 F1500 E-6.5
;LAYER_COUNT:27
;LAYER:0
M107
G0 F3600 X99.155 Y79.817 Z0.3
;TYPE:SKIRT
G1 F1500 E0
G1 X99.535 Y79.395 E0.02833
G1 X99.978 Y79.038 E0.05672
G1 X100.471 Y78.755 E0.08508
G1 X100.942 Y78.571 E0.1103
G1 X101.549 Y78.439 E0.1413
G1 X101.994 Y78.402 E0.16357
G1 X119.494 Y78.4 E1.03665
G1 X121.419 Y78.407 E1.13269
G1 X122.332 Y78.4 E1.17824
G1 X139.345 Y78.4 E2.02702
G1 X140.043 Y78.41 E2.06185
G1 X140.64 Y78.47 E2.09179
G1 X141.19 Y78.616 E2.12018
G1 X141.654 Y78.818 E2.14542
G1 X142.135 Y79.12 E2.17376
G1 X142.608 Y79.539 E2.20528
G1 X142.963 Y79.981 E2.23357
G1 X143.246 Y80.475 E2.26197
G1 X143.447 Y81.006 E2.2903
G1 X143.562 Y81.563 E2.31867
G1 X143.599 Y82.24 E2.3525
G1 X143.6 Y99.494 E3.2133
G1 X143.593 Y101.446 E3.31069
G1 X143.6 Y102.332 E3.35489
G1 X143.6 Y119.309 E4.20188
G1 X143.591 Y120.036 E4.23815
G1 X143.533 Y120.633 E4.26808
G1 X143.387 Y121.183 E4.29647
G1 X143.157 Y121.702 E4.32479
G1 X142.848 Y122.18 E4.35318
G1 X142.467 Y122.603 E4.38159
G1 X142.026 Y122.96 E4.40989
G1 X141.532 Y123.244 E4.43832
G1 X141.001 Y123.445 E4.46665
G1 X140.507 Y123.553 E4.49188
G1 X139.76 Y123.599 E4.52921
G1 X122.506 Y123.6 E5.39002
G1 X120.581 Y123.593 E5.48606
G1 X119.668 Y123.6 E5.53161
G1 X102.661 Y123.6 E6.38009
G1 X101.963 Y123.591 E6.41492
G1 X101.365 Y123.532 E6.4449
G1 X100.815 Y123.386 E6.47329
G1 X100.295 Y123.155 E6.50168
G1 X99.819 Y122.847 E6.52996
G1 X99.396 Y122.466 E6.55836
G1 X99.039 Y122.023 E6.58675
G1 X98.756 Y121.531 E6.61507
G1 X98.554 Y120.999 E6.64346
G1 X98.439 Y120.453 E6.67129
G1 X98.402 Y120 E6.69397
G1 X98.4 Y102.506 E7.56675
G1 X98.407 Y100.554 E7.66413
G1 X98.4 Y99.668 E7.70834
G1 X98.4 Y82.626 E8.55857
G1 X98.409 Y81.961 E8.59175
G1 X98.469 Y81.362 E8.62178
G1 X98.615 Y80.814 E8.65008
G1 X98.845 Y80.295 E8.6784
G1 X99.155 Y79.817 E8.70682
G0 F3600 X99.454 Y80.082
G1 F1500 X99.789 Y79.704 E8.73202
G1 X100.18 Y79.383 E8.75726
G1 X100.617 Y79.128 E8.7825
G1 X101.088 Y78.944 E8.80773
G1 X101.582 Y78.838 E8.83293
G1 X102.027 Y78.801 E8.85521
G1 X119.493 Y78.8 E9.72659
G1 X121.421 Y78.807 E9.82278
G1 X122.335 Y78.8 E9.86838
G1 X139.339 Y78.8 E10.71672
G1 X140.037 Y78.81 E10.75154
G1 X140.54 Y78.857 E10.77675
G1 X141.03 Y78.983 E10.80199
G1 X141.494 Y79.185 E10.82724
G1 X141.92 Y79.457 E10.85245
G1 X142.298 Y79.792 E10.87765
G1 X142.618 Y80.183 E10.90286
G1 X142.873 Y80.62 E10.9281
G1 X143.056 Y81.091 E10.95331
G1 X143.163 Y81.585 E10.97853
G1 X143.199 Y82.24 E11.01126
G1 X143.2 Y99.493 E11.87201
G1 X143.193 Y101.445 E11.9694
G1 X143.2 Y102.335 E12.0138
G1 X143.2 Y119.304 E12.86039
G1 X143.191 Y120.031 E12.89666
G1 X143.145 Y120.534 E12.92186
G1 X143.02 Y121.024 E12.94709
G1 X142.819 Y121.488 E12.97232
G1 X142.548 Y121.915 E12.99755
G1 X142.213 Y122.294 E13.02279
G1 X141.823 Y122.615 E13.04799
G1 X141.387 Y122.871 E13.07321
G1 X140.916 Y123.054 E13.09842
G1 X140.422 Y123.162 E13.12365
G1 X139.76 Y123.199 E13.15673
G1 X122.507 Y123.2 E14.01748
G1 X120.579 Y123.193 E14.11367
G1 X119.665 Y123.2 E14.15927
G1 X102.666 Y123.2 E15.00736
G1 X101.968 Y123.191 E15.04218
G1 X101.464 Y123.144 E15.06744
G1 X100.974 Y123.019 E15.09266
G1 X100.51 Y122.818 E15.11789
G1 X100.084 Y122.547 E15.14308
G1 X99.705 Y122.212 E15.16832
G1 X99.384 Y121.821 E15.19356
G1 X99.129 Y121.385 E15.21876
G1 X98.945 Y120.914 E15.24398
G1 X98.838 Y120.42 E15.2692
G1 X98.801 Y119.967 E15.29188
G1 X98.8 Y102.507 E16.16296
G1 X98.807 Y100.555 E16.26035
G1 X98.8 Y99.665 E16.30475
G1 X98.8 Y82.631 E17.15458
G1 X98.809 Y81.966 E17.18776
G1 X98.856 Y81.462 E17.21301
G1 X98.982 Y80.973 E17.23821
G1 X99.183 Y80.509 E17.26343
G1 X99.454 Y80.082 E17.28867
G1 F1500 E10.78867
;MESH:flat.v1.stl(3)
G0 F3600 X101.374 Y82.453
G0 X119.761 Y99.761
;TYPE:WALL-OUTER
G1 F1500 E17.28867
G1 X119.761 Y82.239 E18.16284
G1 X102.239 Y82.239 E19.03702
G1 X102.239 Y99.761 E19.91119
G1 X119.761 Y99.761 E20.78537
G0 F3600 X119.761 Y99.561
G0 X119.361 Y99.361
;TYPE:WALL-INNER
G1 F1500 X119.361 Y82.639 E21.61963
G1 X102.639 Y82.639 E22.4539
G1 X102.639 Y99.361 E23.28816
G1 X119.361 Y99.361 E24.12243
G0 F3600 X118.981 Y98.981
;TYPE:SKIN
G1 F1500 X118.981 Y83.019 E24.91877
G1 X103.019 Y83.019 E25.71512
G1 X103.019 Y98.981 E26.51147
G1 X118.981 Y98.981 E27.30782
G0 F3600 X118.78 Y83.708
G1 F1500 X118.291 Y83.218 E27.34235
G0 F3600 X117.725 Y83.218
G1 F1500 X118.78 Y84.273 E27.41679
G0 F3600 X118.78 Y84.839
G1 F1500 X117.159 Y83.218 E27.53116
G0 F3600 X116.594 Y83.218
G1 F1500 X118.78 Y85.405 E27.68543
G0 F3600 X118.78 Y85.97
G1 F1500 X116.028 Y83.218 E27.8796
G0 F3600 X115.462 Y83.218
G1 F1500 X118.78 Y86.536 E28.1137
G0 F3600 X118.78 Y87.102
G1 F1500 X114.897 Y83.218 E28.3877
G0 F3600 X114.331 Y83.218
G1 F1500 X118.78 Y87.667 E28.7016
G0 F3600 X118.78 Y88.233
G1 F1500 X113.765 Y83.218 E29.05544
G0 F3600 X113.2 Y83.218
G1 F1500 X118.78 Y88.799 E29.44917
G0 F3600 X118.78 Y89.364
G1 F1500 X112.634 Y83.218 E29.88281
G0 F3600 X112.068 Y83.218
G1 F1500 X118.78 Y89.93 E30.35637
G0 F3600 X118.78 Y90.496
G1 F1500 X111.502 Y83.218 E30.86988
G0 F3600 X110.937 Y83.218
G1 F1500 X118.78 Y91.061 E31.42324
G0 F3600 X118.78 Y91.627
G1 F1500 X110.371 Y83.218 E32.01654
G0 F3600 X109.805 Y83.218
G1 F1500 X118.78 Y92.193 E32.64978
G0 F3600 X118.78 Y92.758
G1 F1500 X109.24 Y83.218 E33.32287
G0 F3600 X108.674 Y83.218
G1 F1500 X118.78 Y93.324 E34.03591
G0 F3600 X118.78 Y93.89
G1 F1500 X108.108 Y83.218 E34.78887
G0 F3600 X107.543 Y83.218
G1 F1500 X118.78 Y94.456 E35.58174
G0 F3600 X118.78 Y95.021
G1 F1500 X106.977 Y83.218 E36.41451
G0 F3600 X106.411 Y83.218
G1 F1500 X118.78 Y95.587 E37.28721
G0 F3600 X118.78 Y96.153
G1 F1500 X105.846 Y83.218 E38.19981
G0 F3600 X105.28 Y83.218
G1 F1500 X118.78 Y96.718 E39.1523
G0 F3600 X118.78 Y97.284
G1 F1500 X104.714 Y83.218 E40.14474
G0 F3600 X104.149 Y83.218
G1 F1500 X118.78 Y97.85 E41.17707
G0 F3600 X118.78 Y98.415
G1 F1500 X103.583 Y83.218 E42.2493
G0 F3600 X103.218 Y83.419
G1 F1500 X118.579 Y98.78 E43.3331
G0 F3600 X118.014 Y98.78
G1 F1500 X103.218 Y83.985 E44.377
G0 F3600 X103.218 Y84.55
G1 F1500 X117.448 Y98.78 E45.381
G0 F3600 X116.882 Y98.78
G1 F1500 X103.218 Y85.116 E46.34507
G0 F3600 X103.218 Y85.682
G1 F1500 X116.316 Y98.78 E47.26921
G0 F3600 X115.751 Y98.78
G1 F1500 X103.218 Y86.247 E48.15348
G0 F3600 X103.218 Y86.813
G1 F1500 X115.185 Y98.78 E48.99782
G0 F3600 X114.619 Y98.78
G1 F1500 X103.218 Y87.379 E49.80222
G0 F3600 X103.218 Y87.944
G1 F1500 X114.054 Y98.78 E50.56676
G0 F3600 X113.488 Y98.78
G1 F1500 X103.218 Y88.51 E51.29136
G0 F3600 X103.218 Y89.076
G1 F1500 X112.922 Y98.78 E51.97603
G0 F3600 X112.357 Y98.78
G1 F1500 X103.218 Y89.642 E52.6208
G0 F3600 X103.218 Y90.207
G1 F1500 X111.791 Y98.78 E53.22567
G0 F3600 X111.225 Y98.78
G1 F1500 X103.218 Y90.773 E53.79061
G0 F3600 X103.218 Y91.339
G1 F1500 X110.66 Y98.78 E54.31565
G0 F3600 X110.094 Y98.78
G1 F1500 X103.218 Y91.904 E54.80079
G0 F3600 X103.218 Y92.47
G1 F1500 X109.528 Y98.78 E55.24599
G0 F3600 X108.963 Y98.78
G1 F1500 X103.218 Y93.036 E55.6513
G0 F3600 X103.218 Y93.601
G1 F1500 X108.397 Y98.78 E56.0167
G0 F3600 X107.831 Y98.78
G1 F1500 X103.218 Y94.167 E56.34217
G0 F3600 X103.218 Y94.733
G1 F1500 X107.265 Y98.78 E56.62771
G0 F3600 X106.7 Y98.78
G1 F1500 X103.218 Y95.298 E56.87339
G0 F3600 X103.218 Y95.864
G1 F1500 X106.134 Y98.78 E57.07913
G0 F3600 X105.568 Y98.78
G1 F1500 X103.218 Y96.43 E57.24493
G0 F3600 X103.218 Y96.995
G1 F1500 X105.003 Y98.78 E57.37087
G0 F3600 X104.437 Y98.78
G1 F1500 X103.218 Y97.561 E57.45688
G0 F3600 X103.218 Y98.127
G1 F1500 X103.871 Y98.78 E57.50295
G0 F3600 X103.306 Y98.78
G1 F1500 X103.218 Y98.693 E57.50913
G0 F3600 X103.239 Y98.693
G1 F1500 E51.00913
;MESH:flat.v1.stl
G0 F3600 X119.491 Y99.541
G0 X119.491 Y100.626
G0 X119.761 Y119.761
;TYPE:WALL-OUTER
G1 F1500 E57.50913
G1 X119.761 Y102.239 E58.3833
G1 X102.239 Y102.239 E59.25748
G1 X102.239 Y119.761 E60.13165
G1 X119.761 Y119.761 E61.00583
G0 F3600 X119.761 Y119.561
G0 X119.361 Y119.361
;TYPE:WALL-INNER
G1 F1500 X119.361 Y102.639 E61.84009
G1 X102.639 Y102.639 E62.67436
G1 X102.639 Y119.361 E63.50862
G1 X119.361 Y119.361 E64.34289
G0 F3600 X118.981 Y118.981
;TYPE:SKIN
G1 F1500 X118.981 Y103.019 E65.13923
G1 X103.019 Y103.019 E65.93558
G1 X103.019 Y118.981 E66.73193
G1 X118.981 Y118.981 E67.52828
G0 F3600 X118.78 Y103.506
G1 F1500 X118.492 Y103.219 E67.54856
G0 F3600 X117.927 Y103.219
G1 F1500 X118.78 Y104.072 E67.60874
G0 F3600 X118.78 Y104.638
G1 F1500 X117.361 Y103.219 E67.70886
G0 F3600 X116.795 Y103.219
G1 F1500 X118.78 Y105.204 E67.84891
G0 F3600 X118.78 Y105.769
G1 F1500 X116.229 Y103.219 E68.02887
G0 F3600 X115.664 Y103.219
G1 F1500 X118.78 Y106.335 E68.24872
G0 F3600 X118.78 Y106.901
G1 F1500 X115.098 Y103.219 E68.5085
G0 F3600 X114.532 Y103.219
G1 F1500 X118.78 Y107.466 E68.80819
G0 F3600 X118.78 Y108.032
G1 F1500 X113.967 Y103.219 E69.14777
G0 F3600 X113.401 Y103.219
G1 F1500 X118.78 Y108.598 E69.52729
G0 F3600 X118.78 Y109.163
G1 F1500 X112.835 Y103.219 E69.9467
G0 F3600 X112.27 Y103.219
G1 F1500 X118.78 Y109.729 E70.40602
G0 F3600 X118.78 Y110.295
G1 F1500 X111.704 Y103.219 E70.90527
G0 F3600 X111.138 Y103.219
G1 F1500 X118.78 Y110.86 E71.44442
G0 F3600 X118.78 Y111.426
G1 F1500 X110.573 Y103.219 E72.02347
G0 F3600 X110.007 Y103.219
G1 F1500 X118.78 Y111.992 E72.64245
G0 F3600 X118.78 Y112.557
G1 F1500 X109.441 Y103.219 E73.30133
G0 F3600 X108.876 Y103.219
G1 F1500 X118.78 Y113.123 E74.00011
G0 F3600 X118.78 Y113.689
G1 F1500 X108.31 Y103.219 E74.73883
G0 F3600 X107.744 Y103.219
G1 F1500 X118.78 Y114.255 E75.51748
G0 F3600 X118.78 Y114.82
G1 F1500 X107.179 Y103.219 E76.33599
G0 F3600 X106.613 Y103.219
G1 F1500 X118.78 Y115.386 E77.19444
G0 F3600 X118.78 Y115.952
G1 F1500 X106.047 Y103.219 E78.09282
G0 F3600 X105.481 Y103.219
G1 F1500 X118.78 Y116.517 E79.0311
G0 F3600 X118.78 Y117.083
G1 F1500 X104.916 Y103.219 E80.00928
G0 F3600 X104.35 Y103.219
G1 F1500 X118.78 Y117.649 E81.02739
G0 F3600 X118.78 Y118.214
G1 F1500 X103.784 Y103.219 E82.08541
G0 F3600 X103.218 Y103.218
G1 F1500 X118.78 Y118.78 E83.18339
G0 F3600 X118.214 Y118.779
G1 F1500 X103.218 Y103.784 E84.2414
G0 F3600 X103.218 Y104.349
G1 F1500 X117.648 Y118.779 E85.25952
G0 F3600 X117.082 Y118.779
G1 F1500 X103.218 Y104.915 E86.2377
G0 F3600 X103.218 Y105.481
G1 F1500 X116.517 Y118.779 E87.17598
G0 F3600 X115.951 Y118.779
G1 F1500 X103.218 Y106.046 E88.07436
G0 F3600 X103.218 Y106.612
G1 F1500 X115.385 Y118.779 E88.93281
G0 F3600 X114.819 Y118.779
G1 F1500 X103.218 Y107.178 E89.75132
G0 F3600 X103.218 Y107.743
G1 F1500 X114.254 Y118.779 E90.52997
G0 F3600 X113.688 Y118.779
G1 F1500 X103.218 Y108.309 E91.26869
G0 F3600 X103.218 Y108.875
G1 F1500 X113.122 Y118.779 E91.96747
G0 F3600 X112.557 Y118.779
G1 F1500 X103.218 Y109.441 E92.62635
G0 F3600 X103.218 Y110.006
G1 F1500 X111.991 Y118.779 E93.24533
G0 F3600 X111.425 Y118.779
G1 F1500 X103.218 Y110.572 E93.82438
G0 F3600 X103.218 Y111.138
G1 F1500 X110.86 Y118.779 E94.36353
G0 F3600 X110.294 Y118.779
G1 F1500 X103.218 Y111.703 E94.86278
G0 F3600 X103.218 Y112.269
G1 F1500 X109.728 Y118.779 E95.32209
G0 F3600 X109.163 Y118.779
G1 F1500 X103.218 Y112.835 E95.74151
G0 F3600 X103.218 Y113.4
G1 F1500 X108.597 Y118.779 E96.12103
G0 F3600 X108.031 Y118.779
G1 F1500 X103.218 Y113.966 E96.46061
G0 F3600 X103.218 Y114.532
G1 F1500 X107.466 Y118.779 E96.7603
G0 F3600 X106.9 Y118.779
G1 F1500 X103.218 Y115.097 E97.02008
G0 F3600 X103.218 Y115.663
G1 F1500 X106.334 Y118.779 E97.23993
G0 F3600 X105.769 Y118.779
G1 F1500 X103.218 Y116.229 E97.41988
G0 F3600 X103.218 Y116.794
G1 F1500 X105.203 Y118.779 E97.55993
G0 F3600 X104.637 Y118.779
G1 F1500 X103.218 Y117.36 E97.66005
G0 F3600 X103.218 Y117.926
G1 F1500 X104.071 Y118.779 E97.72024
G0 F3600 X103.506 Y118.779
G1 F1500 X103.218 Y118.492 E97.74052
G0 F3600 X103.239 Y118.492
G1 F1500 E91.24052
;MESH:flat.v1.stl(1)
G0 F3600 X119.541 Y119.491
G0 X120.626 Y119.491
G0 X139.761 Y119.761
;TYPE:WALL-OUTER
G1 F1500 E97.74052
G1 X139.761 Y102.239 E98.6147
G1 X122.239 Y102.239 E99.48887
G1 X122.239 Y119.761 E100.36305
G1 X139.761 Y119.761 E101.23723
G0 F3600 X139.761 Y119.561
G0 X139.361 Y119.361
;TYPE:WALL-INNER
G1 F1500 X139.361 Y102.639 E102.07149
G1 X122.639 Y102.639 E102.90575
G1 X122.639 Y119.361 E103.74002
G1 X139.361 Y119.361 E104.57428
G0 F3600 X138.981 Y118.981
;TYPE:SKIN
G1 F1500 X138.981 Y103.019 E105.37063
G1 X123.019 Y103.019 E106.16698
G1 X123.019 Y118.981 E106.96332
G1 X138.981 Y118.981 E107.75967
G0 F3600 X138.78 Y103.707
G1 F1500 X138.29 Y103.218 E107.79421
G0 F3600 X137.725 Y103.218
G1 F1500 X138.78 Y104.273 E107.86864
G0 F3600 X138.78 Y104.839
G1 F1500 X137.159 Y103.218 E107.98301
G0 F3600 X136.593 Y103.218
G1 F1500 X138.78 Y105.404 E108.13728
G0 F3600 X138.78 Y105.97
G1 F1500 X136.028 Y103.218 E108.33145
G0 F3600 X135.462 Y103.218
G1 F1500 X138.78 Y106.536 E108.56556
G0 F3600 X138.78 Y107.101
G1 F1500 X134.896 Y103.218 E108.83956
G0 F3600 X134.331 Y103.218
G1 F1500 X138.78 Y107.667 E109.15346
G0 F3600 X138.78 Y108.233
G1 F1500 X133.765 Y103.218 E109.50729
G0 F3600 X133.199 Y103.218
G1 F1500 X138.78 Y108.798 E109.90103
G0 F3600 X138.78 Y109.364
G1 F1500 X132.634 Y103.218 E110.33466
G0 F3600 X132.068 Y103.218
G1 F1500 X138.78 Y109.93 E110.80823
G0 F3600 X138.78 Y110.496
G1 F1500 X131.502 Y103.218 E111.32173
G0 F3600 X130.937 Y103.218
G1 F1500 X138.78 Y111.061 E111.8751
G0 F3600 X138.78 Y111.627
G1 F1500 X130.371 Y103.218 E112.4684
G0 F3600 X129.805 Y103.218
G1 F1500 X138.78 Y112.193 E113.10163
G0 F3600 X138.78 Y112.758
G1 F1500 X129.24 Y103.218 E113.77473
G0 F3600 X128.674 Y103.218
G1 F1500 X138.78 Y113.324 E114.48776
G0 F3600 X138.78 Y113.89
G1 F1500 X128.108 Y103.218 E115.24073
G0 F3600 X127.542 Y103.218
G1 F1500 X138.78 Y114.455 E116.0336
G0 F3600 X138.78 Y115.021
G1 F1500 X126.977 Y103.218 E116.86636
G0 F3600 X126.411 Y103.218
G1 F1500 X138.78 Y115.587 E117.73906
G0 F3600 X138.78 Y116.152
G1 F1500 X125.845 Y103.218 E118.65166
G0 F3600 X125.28 Y103.218
G1 F1500 X138.78 Y116.718 E119.60416
G0 F3600 X138.78 Y117.284
G1 F1500 X124.714 Y103.218 E120.59659
G0 F3600 X124.148 Y103.218
G1 F1500 X138.78 Y117.849 E121.62892
G0 F3600 X138.78 Y118.415
G1 F1500 X123.583 Y103.218 E122.70115
G0 F3600 X123.218 Y103.419
G1 F1500 X138.579 Y118.78 E123.78496
G0 F3600 X138.013 Y118.78
G1 F1500 X123.218 Y103.985 E124.82882
G0 F3600 X123.218 Y104.55
G1 F1500 X137.448 Y118.78 E125.83283
G0 F3600 X136.882 Y118.78
G1 F1500 X123.218 Y105.116 E126.79689
G0 F3600 X123.218 Y105.682
G1 F1500 X136.316 Y118.78 E127.72103
G0 F3600 X135.751 Y118.78
G1 F1500 X123.218 Y106.247 E128.6053
G0 F3600 X123.218 Y106.813
G1 F1500 X135.185 Y118.78 E129.44964
G0 F3600 X134.619 Y118.78
G1 F1500 X123.218 Y107.379 E130.25404
G0 F3600 X123.218 Y107.944
G1 F1500 X134.054 Y118.78 E131.01858
G0 F3600 X133.488 Y118.78
G1 F1500 X123.218 Y108.51 E131.74318
G0 F3600 X123.218 Y109.076
G1 F1500 X132.922 Y118.78 E132.42785
G0 F3600 X132.356 Y118.78
G1 F1500 X123.218 Y109.641 E133.07262
